public/img/common/icon-m.svg

<svg fill="none" height="42" viewBox="0 0 43 42" width="43" xmlns="http://www.w3.org/2000/svg"><rect fill="#fff" height="42" rx="10" width="42" x=".061523"/><path d="m21.554 22.9471c-.0575-.0453-.0678-.098-.0887-.1439-1.8301-3.9813-3.6604-7.9629-5.4863-11.9461-.0547-.119-.1119-.1662-.2503-.1662-2.3171.005-4.6342.0037-6.95137.0037-.03656 0-.0728 0-.10936.001-.03187.0006-.07092.0025-.0678.044.01312.1631-.04874.329.08311.4847.74082.8739 1.46162 1.7646 2.21312 2.6289.263.3027.3721.614.3711 1.0107-.01 3.592-.0059 7.1841-.0056 10.7759 0 .067.001.1346.0088.201.044.369-.0547.6962-.2915.9815-.8508 1.0249-1.70101 2.0505-2.55681 3.0714-.1028.1225-.15654.2425-.1456.4035.01499.2201-.02375.1947.20559.1947 2.36932.0006 4.73862.0003 7.10792.0003.0415 0 .0834-.0006.125-.0012.0268-.0003.0634-.0065.0615-.0335-.0109-.1588.0587-.3241-.0662-.4736-.8843-1.0578-1.7644-2.1187-2.6458-3.1787-.1172-.1411-.1969-.3011-.2528-.476-.0731-.2285-.0394-.4605-.0394-.6919.001-3.0391.0003-6.078.0013-9.1171 0-.0617-.0157-.1278.0268-.2065.0322.0657.0556.111.0766.1569 1.5363 3.326 3.0726 6.652 4.6086 9.978.6002 1.2994 1.2014 2.5985 1.7969 3.9.0509.1117.1094.1566.2328.1464.1396-.0115.2821-.0139.4212.0003.1459.0152.2043-.0431.2562-.1743 1.8284-4.6201 3.6612-9.238 5.4941-13.8563.0193-.0487.0253-.1076.0849-.1498.0022.0354.0044.0552.0044.075 0 3.7522-.0012 7.5046.0019 11.2567 0 .2233-.0747.3941-.2362.5477-.6208.5895-1.2323 1.1883-1.8535 1.7775-.1099.1046-.1637.2081-.1543.3613.0144.2407-.0228.2112.2231.2112 3.1504.0006 6.3008.0003 9.4512.0003.0416 0 .0835.0003.125-.0006.0306-.0009.06 0 .0781-.0356.045-.0878-.0065-.406-.0821-.4795-.6362-.6184-1.272-1.237-1.9091-1.8542-.1347-.1305-.2003-.2856-.195-.4717.0028-.098.0063-.1963.0063-.2943 0-4.5326 0-9.0653 0-13.598 0-.093-.0028-.1861-.006-.2788-.0062-.1861.0572-.343.1934-.472.6212-.5889 1.2377-1.1831 1.8657-1.7649.1381-.1277.1999-.254.1893-.4407-.0072-.1265-.0356-.1621-.1656-.1621-2.2184.004-4.4364.004-6.6548 0-.1203 0-.1706.0424-.2128.147-1.1982 2.9752-2.399 5.9492-3.6 8.9236-.4275 1.0584-.8555 2.1162-1.2876 3.1852z" fill="#003"/></svg>

<svg width="43" height="42" viewBox="0 0 43 42" fill="none" xmlns="http://www.w3.org/2000/svg">
<rect x="0.0615234" width="42" height="42" rx="10" fill="white"/>
<path d="M21.554 22.9471C21.4965 22.9018 21.4862 22.8491 21.4653 22.8032C19.6352 18.8219 17.8049 14.8403 15.979 10.8571C15.9243 10.7381 15.8671 10.6909 15.7287 10.6909C13.4116 10.6959 11.0945 10.6946 8.77733 10.6946C8.74077 10.6946 8.70453 10.6946 8.66797 10.6956C8.6361 10.6962 8.59705 10.6981 8.60017 10.7396C8.61329 10.9027 8.55143 11.0686 8.68328 11.2243C9.4241 12.0982 10.1449 12.9889 10.8964 13.8532C11.1594 14.1559 11.2685 14.4672 11.2675 14.8639C11.2575 18.4559 11.2616 22.048 11.2619 25.6398C11.2619 25.7068 11.2629 25.7744 11.2707 25.8408C11.3147 26.2098 11.216 26.537 10.9792 26.8223C10.1284 27.8472 9.27819 28.8728 8.42239 29.8937C8.31959 30.0162 8.26585 30.1362 8.27679 30.2972C8.29178 30.5173 8.25304 30.4919 8.48238 30.4919C10.8517 30.4925 13.221 30.4922 15.5903 30.4922C15.6318 30.4922 15.6737 30.4916 15.7153 30.491C15.7421 30.4907 15.7787 30.4845 15.7768 30.4575C15.7659 30.2987 15.8355 30.1334 15.7106 29.9839C14.8263 28.9261 13.9462 27.8652 13.0648 26.8052C12.9476 26.6641 12.8679 26.5041 12.812 26.3292C12.7389 26.1007 12.7726 25.8687 12.7726 25.6373C12.7736 22.5982 12.7729 19.5593 12.7739 16.5202C12.7739 16.4585 12.7582 16.3924 12.8007 16.3137C12.8329 16.3794 12.8563 16.4247 12.8773 16.4706C14.4136 19.7966 15.9499 23.1226 17.4859 26.4486C18.0861 27.748 18.6873 29.0471 19.2828 30.3486C19.3337 30.4603 19.3922 30.5052 19.5156 30.495C19.6552 30.4835 19.7977 30.4811 19.9368 30.4953C20.0827 30.5105 20.1411 30.4522 20.193 30.321C22.0214 25.7009 23.8542 21.083 25.6871 16.4647C25.7064 16.416 25.7124 16.3571 25.772 16.3149C25.7742 16.3503 25.7764 16.3701 25.7764 16.3899C25.7764 20.1421 25.7752 23.8945 25.7783 27.6466C25.7783 27.8699 25.7036 28.0407 25.5421 28.1943C24.9213 28.7838 24.3098 29.3826 23.6886 29.9718C23.5787 30.0764 23.5249 30.1799 23.5343 30.3331C23.5487 30.5738 23.5115 30.5443 23.7574 30.5443C26.9078 30.5449 30.0582 30.5446 33.2086 30.5446C33.2502 30.5446 33.2921 30.5449 33.3336 30.544C33.3642 30.5431 33.3936 30.544 33.4117 30.5084C33.4567 30.4206 33.4052 30.1024 33.3296 30.0289C32.6934 29.4105 32.0576 28.7919 31.4205 28.1747C31.2858 28.0442 31.2202 27.8891 31.2255 27.703C31.2283 27.605 31.2318 27.5067 31.2318 27.4087C31.2318 22.8761 31.2318 18.3434 31.2318 13.8107C31.2318 13.7177 31.229 13.6246 31.2258 13.5319C31.2196 13.3458 31.283 13.1889 31.4192 13.0599C32.0404 12.471 32.6569 11.8768 33.2849 11.295C33.423 11.1673 33.4848 11.041 33.4742 10.8543C33.467 10.7278 33.4386 10.6922 33.3086 10.6922C31.0902 10.6962 28.8722 10.6962 26.6538 10.6922C26.5335 10.6922 26.4832 10.7346 26.441 10.8392C25.2428 13.8144 24.042 16.7884 22.841 19.7628C22.4135 20.8212 21.9855 21.879 21.5534 22.948L21.554 22.9471Z" fill="#000033"/>
</svg>
